X: 18575
T: I Ne'er Shall Wean Her
R: jig
M: 6/8
K: Cmajor
|:GF|EGG GED|EGG c2B|BAA AGA|Acd d2B|
cde g2a|ged c2d|eag edB|cAA A:|
|:cd|egg ged|egg ged|eaa aga|bag a2d|
cde g2a|ged c2d|eag edB|cAA A:|

